X: 146
T:The Beare Island Reel
M:4/4
L:1/8
F:http://blackrosetheband.googlepages.com/ABCTUNES.ABC May 2009
C:Dale Russ
S:Kevin Burke/Micheal O' Domhnaill
R:r
K:D
|:"E"EB^GB A^GEA|dBcA Beec|d2fd AFDF|(3GFE ED EDB,A,|
"Em"B,EEF GFGA|(3BBB GA Bdef|"C"g2fg ef (3gfe|"D"dBAF "E"E4:|
|:"Em"Beef "C"(3gfe fd|B2AG "D"FD (3FED|"Em"Beef "C"gefd|"D"Be^df "Em"e2 ef|
edBc "Bm"d3c|BcdB "D"AFDF|"Em"GB (3BBB "D"AFDF|(3GFE ED "Em"E4:||

